src/shared/assets/svgs/gear.svg

<svg width="54" height="54" viewBox="0 0 54 54" fill="none" xmlns="http://www.w3.org/2000/svg">
<path fill-rule="evenodd" clip-rule="evenodd" d="M29.208 19.83C29.6613 19.97 30.0947 20.15 30.508 20.37L32.341 19.27C32.5321 19.1554 32.7561 19.1079 32.9773 19.135C33.1985 19.1622 33.4043 19.2625 33.562 19.42L34.58 20.438C34.7375 20.5957 34.8378 20.8015 34.865 21.0227C34.8921 21.2439 34.8446 21.4679 34.73 21.659L33.63 23.492C33.85 23.9053 34.03 24.3387 34.17 24.792L36.243 25.311C36.4592 25.3652 36.6512 25.49 36.7883 25.6658C36.9255 25.8415 37 26.0581 37 26.281V27.719C37 27.9419 36.9255 28.1585 36.7883 28.3342C36.6512 28.51 36.4592 28.6348 36.243 28.689L34.17 29.208C34.03 29.6613 33.85 30.0947 33.63 30.508L34.73 32.341C34.8446 32.5321 34.8921 32.7561 34.865 32.9773C34.8378 33.1985 34.7375 33.4043 34.58 33.562L33.562 34.58C33.4043 34.7375 33.1985 34.8378 32.9773 34.865C32.7561 34.8921 32.5321 34.8446 32.341 34.73L30.508 33.63C30.0947 33.85 29.6613 34.03 29.208 34.17L28.689 36.243C28.6348 36.4592 28.51 36.6512 28.3342 36.7883C28.1585 36.9255 27.9419 37 27.719 37H26.281C26.0581 37 25.8415 36.9255 25.6658 36.7883C25.49 36.6512 25.3652 36.4592 25.311 36.243L24.792 34.17C24.3427 34.0312 23.9074 33.8504 23.492 33.63L21.659 34.73C21.4679 34.8446 21.2439 34.8921 21.0227 34.865C20.8015 34.8378 20.5957 34.7375 20.438 34.58L19.42 33.562C19.2625 33.4043 19.1622 33.1985 19.135 32.9773C19.1079 32.7561 19.1554 32.5321 19.27 32.341L20.37 30.508C20.1496 30.0926 19.9688 29.6573 19.83 29.208L17.757 28.689C17.5409 28.6349 17.3491 28.5101 17.212 28.3346C17.0748 28.1591 17.0002 27.9428 17 27.72V26.282C17 26.0591 17.0745 25.8425 17.2117 25.6668C17.3488 25.491 17.5408 25.3662 17.757 25.312L19.83 24.793C19.97 24.3397 20.15 23.9063 20.37 23.493L19.27 21.66C19.1554 21.4689 19.1079 21.2449 19.135 21.0237C19.1622 20.8025 19.2625 20.5967 19.42 20.439L20.438 19.42C20.5957 19.2625 20.8015 19.1622 21.0227 19.135C21.2439 19.1079 21.4679 19.1554 21.659 19.27L23.492 20.37C23.9053 20.15 24.3387 19.97 24.792 19.83L25.311 17.757C25.3651 17.5409 25.4899 17.3491 25.6654 17.212C25.8409 17.0748 26.0572 17.0002 26.28 17H27.718C27.9409 17 28.1575 17.0745 28.3332 17.2117C28.509 17.3488 28.6338 17.5408 28.688 17.757L29.208 19.83ZM27 31C28.0609 31 29.0783 30.5786 29.8284 29.8284C30.5786 29.0783 31 28.0609 31 27C31 25.9391 30.5786 24.9217 29.8284 24.1716C29.0783 23.4214 28.0609 23 27 23C25.9391 23 24.9217 23.4214 24.1716 24.1716C23.4214 24.9217 23 25.9391 23 27C23 28.0609 23.4214 29.0783 24.1716 29.8284C24.9217 30.5786 25.9391 31 27 31Z" fill="white"/>
</svg>

<svg xmlns="http://www.w3.org/2000/svg" width="54" height="54" fill="none"><path fill="#fff" fill-rule="evenodd" d="M29.208 19.83q.68.21 1.3.54l1.833-1.1a1 1 0 0 1 1.221.15l1.018 1.018a1 1 0 0 1 .15 1.221l-1.1 1.833q.33.62.54 1.3l2.073.519a1 1 0 0 1 .757.97v1.438a1 1 0 0 1-.757.97l-2.073.519a7.4 7.4 0 0 1-.54 1.3l1.1 1.833a1 1 0 0 1-.15 1.221l-1.018 1.018a1 1 0 0 1-1.221.15l-1.833-1.1q-.62.33-1.3.54l-.519 2.073a1 1 0 0 1-.97.757h-1.438a1 1 0 0 1-.97-.757l-.519-2.073a7.5 7.5 0 0 1-1.3-.54l-1.833 1.1a1 1 0 0 1-1.221-.15l-1.018-1.018a1 1 0 0 1-.15-1.221l1.1-1.833a7.5 7.5 0 0 1-.54-1.3l-2.073-.519A1 1 0 0 1 17 27.72v-1.438a1 1 0 0 1 .757-.97l2.073-.519q.21-.68.54-1.3l-1.1-1.833a1 1 0 0 1 .15-1.221l1.018-1.019a1 1 0 0 1 1.221-.15l1.833 1.1q.62-.33 1.3-.54l.519-2.073A1 1 0 0 1 26.28 17h1.438a1 1 0 0 1 .97.757zM27 31a4 4 0 1 0 0-8 4 4 0 0 0 0 8" clip-rule="evenodd"/></svg>
